actions/22x22-light/distribute-horizontal-margin.svg

<svg xmlns="http://www.w3.org/2000/svg" viewBox="0 0 22 22">
 <defs id="defs3051">
   <style type="text/css" id="current-color-scheme">
     .ColorScheme-Text {
       color:#4d4d4d;
     }
     </style>
 </defs>
   <path
      style="fill:currentColor;fill-opacity:1;stroke:none"
      d="m3 3v1 15h1 14 1v-1-14-1zm1 1h14v14h-14zm1 3v8h5v-8zm7 0v8h5v-8zm-6 1h3v6h-3zm7 0h3v6h-3z"
      class="ColorScheme-Text" />
</svg>

<svg xmlns="http://www.w3.org/2000/svg" viewBox="0 0 22 22">
  <defs id="defs3051">
    <style type="text/css" id="current-color-scheme">
      .ColorScheme-Text {
        color:#4d4d4d;
      }
      </style>
  </defs>
 <path 
    style="fill:currentColor;fill-opacity:1;stroke:none" 
    d="M 3 3 L 3 4 L 3 19 L 4 19 L 18 19 L 19 19 L 19 18 L 19 4 L 19 3 L 3 3 z M 4 4 L 18 4 L 18 18 L 4 18 L 4 4 z M 5 7 L 5 15 L 10 15 L 10 7 L 5 7 z M 12 7 L 12 15 L 17 15 L 17 7 L 12 7 z M 6 8 L 9 8 L 9 14 L 6 14 L 6 8 z M 13 8 L 16 8 L 16 14 L 13 14 L 13 8 z "
    class="ColorScheme-Text"
    />
</svg>
